gama.ui.shared/icons_svg/light/overlays/small.edit.svg

<svg height="16" viewBox="-710.956 -3547.546 16 16" width="16" xmlns="http://www.w3.org/2000/svg"><g fill="none"><path d="m-699.2511-3545.1085 1.8955 1.7692-8.7195 8.8458h-1.8955v-1.8955z" fill="#fff"/><path d="m-698.5733-3542.0642-1.2511-1.2511 1.2511 1.2511-7.5822 7.5822zm-9.4777 5.6866v1.8956zm8.8458-8.8458-7.5821 7.5821zm1.89556 1.8954-.73296-.733.73296.733-.89726.8973z" fill="#fff"/><path d="m-699.2052-3545.5394c-.0821 0-.1643.0316-.2211.0948l-8.8459 8.8459c-.05685.0567-.09476.139-.09476.2211v1.8956c0 .177.13901.316.31596.316h1.8955c.08215 0 .1643-.0317.22115-.095l8.84585-8.8458c.1264-.1262.1264-.3222 0-.4486l-1.8955-1.8956c-.0632-.063-.1454-.0947-.2212-.0947zm.6319 3.0264-1.447-1.4468.8151-.8152 1.44694 1.447zm-9.1618 7.715v-1.447l7.2662-7.266 1.44695 1.4468-7.26625 7.2662z" fill="#000"/></g></svg>

<?xml version="1.0" encoding="UTF-8" standalone="no"?>
<!DOCTYPE svg PUBLIC "-//W3C//DTD SVG 1.1//EN" "http://www.w3.org/Graphics/SVG/1.1/DTD/svg11.dtd">
<svg version="1.1" xmlns="http://www.w3.org/2000/svg" xmlns:xl="http://www.w3.org/1999/xlink" xmlns:dc="http://purl.org/dc/elements/1.1/" viewBox="-710.9561 -3547.5457 16.000008 16.000008" width="16.000008" height="16.000008">
  <defs/>
  <g id="SOURCES" stroke-dasharray="none" fill="none" stroke="none" fill-opacity="1" stroke-opacity="1">
    <title>SOURCES</title>
    <g id="SOURCES_Calque_2">
      <title>Calque 2</title>
      <g id="Group_9435">
        <g id="Graphic_9434">
          <path d="M -699.2511 -3545.1085 L -697.3556 -3543.3393 L -706.0751 -3534.4935 L -707.9706 -3534.4935 L -707.9706 -3536.389 Z" fill="white"/>
        </g>
        <g id="Group_9430">
          <title>pencil</title>
          <g id="Group_9431">
            <g id="Graphic_9433">
              <path d="M -698.5733 -3542.0642 L -699.8244 -3543.3153 L -698.5733 -3542.0642 L -706.1555 -3534.482 Z M -708.051 -3536.3776 L -708.051 -3534.482 Z M -699.2052 -3545.2234 L -706.7873 -3537.6413 Z M -697.30964 -3543.328 L -698.0426 -3544.061 L -697.30964 -3543.328 L -698.2069 -3542.4307 Z" fill="white"/>
            </g>
            <g id="Graphic_9432">
              <path d="M -699.2052 -3545.5394 C -699.2873 -3545.5394 -699.3695 -3545.5078 -699.4263 -3545.4446 L -708.2722 -3536.5987 C -708.32905 -3536.542 -708.36696 -3536.4597 -708.36696 -3536.3776 L -708.36696 -3534.482 C -708.36696 -3534.305 -708.22795 -3534.166 -708.051 -3534.166 L -706.1555 -3534.166 C -706.07335 -3534.166 -705.9912 -3534.1977 -705.93435 -3534.261 L -697.0885 -3543.1068 C -696.9621 -3543.233 -696.9621 -3543.429 -697.0885 -3543.5554 L -698.984 -3545.451 C -699.0472 -3545.514 -699.1294 -3545.5457 -699.2052 -3545.5457 Z M -698.5733 -3542.513 L -700.0203 -3543.9598 L -699.2052 -3544.775 L -697.75826 -3543.328 Z M -707.7351 -3534.798 L -707.7351 -3536.245 L -700.4689 -3543.511 L -699.02195 -3542.0642 L -706.2882 -3534.798 Z" fill="black"/>
            </g>
          </g>
        </g>
      </g>
      <g id="Graphic_9436"/>
    </g>
  </g>
</svg>
